X:1135
T:Liverpool Hornpipe
A:Wyresdale, Lancashire
B:E and J Winder, 1835-41
L:1/8
M:C|
N: There's a little "6/8" marking under the key sig
O:England
Z:Richard Robinson 
%%TUNEURL: http://www.leeds.ac.uk/music/Info/RRTuneBk/gettune/00001155.html
%%ID:00001155
K:D
FEFA dfaf | gefd dcBA | GBGB FAFA | EFGA GFED |
FEFA dfaf | gefd dcBA | fafd egec | d2d2d2 ::
dffd ceec | BddB BAGF | GBGB FAFA | EFGA GFED |
FEFA dfaf | gefd dcBA | fafd egec | d2d2d2 :|
